configs/network-icons/ethereum.svg

<svg width="30" height="30" viewBox="0 0 30 30" fill="none" xmlns="http://www.w3.org/2000/svg">
<path d="M15 30C23.2843 30 30 23.2843 30 15C30 6.71573 23.2843 0 15 0C6.71573 0 0 6.71573 0 15C0 23.2843 6.71573 30 15 30Z" fill="#627EEA"/>
<path d="M15.0284 3.83331V12.1493L22.0569 15.2904L15.0284 3.83331Z" fill="white" fill-opacity="0.602"/>
<path d="M15.0284 3.83331L8 15.2904L15.0284 12.1493V3.83331Z" fill="white"/>
<path d="M15.0284 20.6786V26.3292L22.061 16.5985L15.0284 20.6786Z" fill="white" fill-opacity="0.602"/>
<path d="M15.0284 26.3292V20.6786L8 16.5985L15.0284 26.3292Z" fill="white"/>
<path d="M15.0284 19.3705L22.0569 15.2904L15.0284 12.1494V19.3705Z" fill="white" fill-opacity="0.2"/>
<path d="M8 15.2904L15.0284 19.3705V12.1494L8 15.2904Z" fill="white" fill-opacity="0.602"/>
</svg>

<svg xmlns="http://www.w3.org/2000/svg" fill="none" viewBox="0 0 30 30">
  <path fill="#627EEA" d="M15 30c8.284 0 15-6.716 15-15 0-8.284-6.716-15-15-15C6.716 0 0 6.716 0 15c0 8.284 6.716 15 15 15Z"/>
  <path fill="#fff" fill-opacity=".602" d="M15.028 3.833v8.316l7.029 3.141-7.029-11.457Z"/>
  <path fill="#fff" d="M15.028 3.833 8 15.29l7.028-3.14V3.832Z"/>
  <path fill="#fff" fill-opacity=".602" d="M15.028 20.679v5.65l7.033-9.73-7.033 4.08Z"/>
  <path fill="#fff" d="M15.028 26.33v-5.651L8 16.599l7.028 9.73Z"/>
  <path fill="#fff" fill-opacity=".2" d="m15.028 19.37 7.029-4.08-7.029-3.14v7.22Z"/>
  <path fill="#fff" fill-opacity=".602" d="m8 15.29 7.028 4.08v-7.22L8 15.29Z"/>
</svg>
